common/resources/fonts/svg/dataset.svg

<?xml version="1.0" encoding="UTF-8" standalone="no"?>
<svg width="1024px" height="1024px" viewBox="0 0 1024 1024" version="1.1" xmlns="http://www.w3.org/2000/svg" xmlns:xlink="http://www.w3.org/1999/xlink">
    <!-- Generator: Sketch 3.7.1 (28215) - http://www.bohemiancoding.com/sketch -->
    <title>dataset</title>
    <desc>Created with Sketch.</desc>
    <defs></defs>
    <g id="Page-1" stroke="none" stroke-width="1" fill="none" fill-rule="evenodd">
        <g id="dataset" fill="#000000">
            <path d="M511.101562,65 L695.695312,171.28125 L512.5,278.960938 L326.507812,171.28125 L511.101562,65 L511.101562,65 Z M245.398438,821.554688 L65,718.070313 L65,367.0625 L245.398438,470.546875 L245.398438,821.554688 L245.398438,821.554688 Z M88.7734375,309.726562 L266.375,206.242187 L450.96875,312.523437 L274.765625,417.40625 L88.7734375,309.726562 L88.7734375,309.726562 Z M480.335937,957.203125 L309.726562,857.914062 L309.726562,506.90625 L480.335937,606.195312 L480.335937,957.203125 L480.335937,957.203125 Z M513.898438,555.851563 L334.898438,452.367188 L512.5,348.882813 L691.5,452.367188 L513.898438,555.851563 L513.898438,555.851563 Z M720.867187,857.914063 L543.265625,960 L543.265625,608.992188 L719.46875,506.90625 L719.46875,857.914063 L720.867187,857.914063 Z M572.632813,313.921875 L755.828125,207.640625 L934.828125,311.125 L751.632813,417.40625 L572.632813,313.921875 L572.632813,313.921875 Z M960,718.070313 L785.195312,820.15625 L785.195312,469.148438 L960,367.0625 L960,718.070313 L960,718.070313 Z" id="Shape"></path>
        </g>
    </g>
</svg>

<svg width="1024" height="1024" viewBox="0 0 1024 1024">
    <path d="M511.102 65l184.593 106.281L512.5 278.961 326.508 171.28 511.102 65zM245.398 821.555L65 718.07V367.062l180.398 103.485v351.008zM88.773 309.727l177.602-103.485 184.594 106.281-176.203 104.883-185.993-107.68zm391.563 647.476l-170.61-99.289V506.906l170.61 99.29v351.007zm33.562-401.351l-179-103.485L512.5 348.883l179 103.484-177.602 103.485zm206.97 302.062L543.265 960V608.992l176.203-102.086v351.008h1.398zM572.632 313.922L755.828 207.64l179 103.484-183.195 106.281-179-103.484zM960 718.07L785.195 820.156V469.148L960 367.062V718.07z" fill-rule="evenodd"/>
</svg>
